X:19032
T:Suo Gan
T:Welsh Lullaby
R:Air
C:Trad.
O:Wales
M:4/4
L:1/8
Q:1/4=80
K:D
"D"D3 E F A3|"Em"E3 D F E3|"D"D3 E F A3|"Em"E2 F2 "D"D4:|
"D"F3 G A F3|"G"B3 G "D"A F3|"D"F3 G A F3|"Bm"d3 B "D"A4|
"D"D3 E F A3|"Em"E3 D F E3|"D"D3 E F A3|"Em"E2 F2 "D"D4|]

